packages/core/src/svgs/pi.svg

<svg width="24" height="24" viewBox="0 0 24 24" fill="none" xmlns="http://www.w3.org/2000/svg">
<g clip-path="url(#clip0_31_15946)">
<path d="M0 0H24V24H0V0Z" fill="#265AA3"/>
<path d="M13.8643 17.1431C10.8557 17.0788 8.57574 16.1445 7.80859 15.6859C9.75043 16.193 11.7774 16.2851 13.7572 15.9559C14.2715 15.8488 15.6172 15.6859 17.28 14.5416C17.8686 14.1496 18.3389 13.6044 18.6403 12.9646C18.9416 12.3249 19.0626 11.615 18.99 10.9116C19.5257 12.8402 19.2129 14.1988 18.99 14.6402C18.5357 15.4973 16.8772 17.2031 13.8643 17.1431Z" fill="white"/>
<path d="M13.4871 7.72286C11.8328 7.65001 9.97278 7.97572 9.24421 8.14286C9.6985 8.14286 11.0014 8.22001 12.9599 8.89715C14.9185 9.57001 15.5571 10.8557 15.6085 11.6357C15.6359 12.2248 15.471 12.8068 15.1385 13.2939C14.8061 13.7809 14.3242 14.1466 13.7656 14.3357C12.1842 14.8757 8.73421 15.1714 7.2085 15.2529C7.8085 15.5014 9.92993 15.8743 12.1199 15.8743C13.9038 15.8799 15.6475 15.345 17.1214 14.34C17.6633 13.9833 18.1045 13.4932 18.4024 12.9168C18.7004 12.3404 18.8451 11.697 18.8228 11.0486C18.7542 8.80286 15.5614 7.81715 13.4871 7.72286Z" fill="white"/>
<path d="M15.3729 11.7217C15.4044 12.2359 15.2526 12.7446 14.9443 13.1574C14.9443 12.7631 14.01 11.3659 10.53 11.4774C6.80147 11.5931 6.4029 11.9102 5.98719 12.1717C5.3529 12.5659 5.19433 13.5259 5.29719 13.9802C4.2129 12.2531 4.68004 10.9545 5.72576 9.84451C6.55719 8.96165 7.69719 8.5588 8.16862 8.4688C13.9972 8.31451 15.3429 10.7959 15.3729 11.7217Z" fill="white"/>
<path d="M10.2087 11.7086C6.2358 11.6786 5.41723 12.81 5.50294 13.38C6.13294 12.8443 7.24294 12.7372 9.33866 12.7372C10.8387 12.7372 12.0987 12.9129 12.7972 13.1957C13.4529 13.4615 13.3244 14.04 13.1401 14.31C14.2329 14.0443 14.6615 13.5814 14.7429 13.38C14.8887 12.8357 14.1858 11.7429 10.2087 11.7086Z" fill="white"/>
<path d="M3.85712 12.3256C3.89997 11.1513 4.95854 10.127 5.4814 9.7627C4.66712 10.7184 4.42712 11.1684 4.3714 12.3256C4.32854 13.247 5.14712 14.297 5.56283 14.7041C4.9714 14.3998 3.81426 13.4956 3.85712 12.3256ZM4.50854 14.237C4.61997 14.3998 4.93712 14.7727 5.3314 14.9398C5.09733 14.6622 4.81936 14.4248 4.50854 14.237Z" fill="white"/>
</g>
<defs>
<clipPath id="clip0_31_15946">
<rect width="24" height="24" fill="white"/>
</clipPath>
</defs>
</svg>

<svg xmlns="http://www.w3.org/2000/svg" width="24" height="24" fill="none" viewBox="0 0 24 24"><g clip-path="url(#a)"><path fill="#265AA3" d="M0 0h24v24H0z"/><path fill="#fff" d="M13.864 17.143c-3.008-.064-5.288-.998-6.055-1.457 1.941.507 3.968.6 5.948.27.515-.107 1.86-.27 3.523-1.414a3.88 3.88 0 0 0 1.71-3.63c.536 1.928.223 3.287 0 3.728-.454.857-2.113 2.563-5.126 2.503"/><path fill="#fff" d="M13.487 7.723c-1.654-.073-3.514.253-4.243.42.454 0 1.757.077 3.716.754 1.958.673 2.597 1.959 2.648 2.739a2.72 2.72 0 0 1-1.842 2.7c-1.582.54-5.032.835-6.557.917.6.248 2.72.621 4.91.621a8.83 8.83 0 0 0 5.002-1.534 3.78 3.78 0 0 0 1.702-3.291c-.069-2.246-3.262-3.232-5.336-3.326"/><path fill="#fff" d="M15.373 11.722a2.18 2.18 0 0 1-.429 1.435c0-.394-.934-1.791-4.414-1.68-3.729.116-4.127.433-4.543.695-.634.394-.793 1.354-.69 1.808-1.084-1.727-.617-3.026.429-4.135.831-.883 1.971-1.286 2.443-1.376 5.828-.154 7.174 2.327 7.204 3.253"/><path fill="#fff" d="M10.209 11.709c-3.973-.03-4.792 1.101-4.706 1.671.63-.536 1.74-.643 3.836-.643 1.5 0 2.76.176 3.458.459.656.265.527.844.343 1.114 1.093-.266 1.521-.729 1.603-.93.146-.544-.557-1.637-4.534-1.671"/><path fill="#fff" d="M3.857 12.326C3.9 11.15 4.96 10.127 5.481 9.763c-.814.955-1.054 1.405-1.11 2.563-.042.921.776 1.971 1.192 2.378-.592-.304-1.749-1.208-1.706-2.378m.652 1.911c.111.163.428.536.822.703a3.3 3.3 0 0 0-.822-.703"/></g><defs><clipPath id="a"><path fill="#fff" d="M0 0h24v24H0z"/></clipPath></defs></svg>
